X:402
%%etbk:tnset id:117,pos:3,rep:3x,ant:
%%etbk:pldat 2014-03-25T18:38
T: Gan Ainm
S: Dieter Sieber
Z: Piano Box Version by Martin Fleischmann
H: Created 2013-02-19 /  Last Modified 2013-02-19
M: 2/4
L: 1/8
R: polka
K: Gmaj
|: "G"!1!D2 !2!G>A | !4!B!5!d !4!B!5!c/!4!B/ | "D"!3!AG !4!BA | !3!AG !1!E!2!G |
 "G"!1!D2 !2!G>A | !4!B!5!d !4!B!5!c/!4!B/ | "D"!3!AG BA | "G"!2![G4D] :|
|:"G" !5!g2 !4!e2 | !3!d!2!B !3!d2 | !1!G>A B!2!A | "D"!3!AG !1!E!2!G |
 "G"!1!D2 !2!G>A | !4!B!5!d !4!B!5!c/!4!B/ | "D"!3!AG BA | "G"!2!G4 :|


